X:1
S: Harding's (one of Ned's finds)
T:The Wig
M:9/8
L:1/8
Z:Nate Berry on June 14, 2006 from an original scan by Ned Berry
K:C
 e|: dBA A2 e A2 e | dBA A2 e dBA | dBA A2 e A2 e | de^f g2 e dBA :|
e2 a gbg a2 a | e2 a a2 b c'ba  | g2 g ga^f g2 g | dBd g2 e dBA :|
|: dBA A2 e A2 e | dBA A2 e dBA | dBA A2 e A2 e | de^f g2 e dBA :|
e2 a gbg a2 a | e2 a a2 b c'ba  | g2 g ga^f g2 g | dBd g2 e dBA :| A4 z2 z2 z ||
